X:82
T:A Vist Lou Loup
R:Bourre
M:3/8
L:1/8
N:La Bourre 4th edition 1929, page 81
Z:Steve Mansfield www.lesession.co.uk June 2012
K:Am
c B c | A2 c | B G2 | c B c | 
(AB) G | A3 :| E ^F G | A2 (G/^F/) | E A2 | 
E ^F G | A2 G | ^F3 | E ^F G | A2 (G/^F/) | 
E A2 | E ^F G | (AB) A | G3 |]

